!!!OTL: ICH HATT EINEN KAMERADEN
!!!ARE: Europa, Mitteleuropa, Deutschland
!!!SCT: F0581
!!!YEM: Copyright 1995, estate of Helmut Schaffrath.
**kern
*ICvox
*Ivox
*M4/4
*k[]
*C:
{4G
=1
4c
8e
8e
4e
4d
=2
2c
4G}
{8c
8d
=3
4e
4g
4g
4f
=4
2e
4r}
{4G
=5
4c
8e
8e
4e
4d
=6
2c
4G}
{8c
8d
=7
4e
4g
4g
4f
=8
2e
4r}
{8c
8d
=9
4e
4e
4e
4d
=10
8.e
16d
8.e
16f
4g}
{8f
8e
=11
4d
4d
4d
4c
=12
8.d
16c
8.d
16e
4f}
{4g
=13
4e
4e
8d
8c
8d
8e
=14
2c}
{2a
=15
4a
4g
8d
8c
8d
8e
=16
2c
4r}
{8c
8d
=17
4e
4e
4e
4d
=18
8.e
16d
8.e
16f
4g}
{8f
8e
=19
4d
4d
4d
4c
=20
8.d
16c
8.d
16e
4f}
{4g
=21
4e
4e
8d
8c
8d
8e
=22
2c}
{2a
=23
4a
4g
8d
8c
8d
8e
=24
2c
4r}
==
!!!AGN: Soldaten - Lied, Tod
!!!ONB: ESAC (Essen Associative Code) Database: FINK
!!!AMT: simple quadruple
!!!AIN: vox
!!!EED: Helmut Schaffrath
!!!EEV: 1.0
*-
